X: 29822
T: O'Connor Donn's
R: reel
M: 4/4
K: Gmajor
BA|G2 (3Bcd eABA|G3B AGED|GABB eage|dBcA BGAF|
~G2df eBBA|G2GB AGEB|cz(3Bcd eage|dBAc BGG2||
fa~a2 fadA|fa~a2 fa~a2|faag fadz|egfa ~g3a|
(3bag ag (3fga dA|(3fga dA(3fga de|faag (3ege de|fgaf (3gfe d||

